X: 21041
T: GOD PRESERVE THE EMPEROR
T: Deutschland \"uber alles
T: Einigkeit und Recht und Freiheit
C: Haydn.
%R: "Larghetto."
N: This is version 1, for ABC software that doesn't understand diminuendo/crescendo notation.
B: W. Hamilton "Universal Tune-Book" Vol. 2 Glasgow 1846 p.104
S: http://s3-eu-west-1.amazonaws.com/itma.dl.printmaterial/book_pdfs/hamiltonvol2web.pdf
Z: 2016 John Chambers <jc:trillian.mit.edu>
M: C
L: 1/8
K: G
% - - - - - - - - - - - - - - - - - - - - - - - - -
V: 1 staves=3
!mf!g3a |\
b2a2 c'2b2 | (af)g2 e'2d'2 | {d'}c'2b2 a2(bg) | d'4 !p!g3a |\
b2a2 c'2b2 | (af) gz e'2d'2 | {d'}c'2b2 "_dim. - - -"a2(bg) |
"_<>"d'4 !p!a2b2 |\
(af)d2 c'2b2 | (af)d2 d'3"_cres."c' | b3B "_dim."^c3c | "_<>"Hd4 !p!yg'3f' |\
e'2d'2 e'3d' | {d'}c'3b a3(b/c'/) |
(d'e'c'a) g2 ({b}a>g) | g.a/.b/ .c'/.d'/.e'/.f'/ !f!g'3f' |\
e'2d'2 e'3d' | {d'}c'2b2 a3(b/c'/) | (d'e'c'a) g2 ({b}a>g) | Hg4 |]
% - - - - - - - - - - - - - - - - - - - - - - - - -
V: 2
!mf!B3d |\
g2f2 a2g2 | c2B2 c'2b2 | d4 e4 | f4 !p!B3d |\
g2f2 e2d2 | c2B2 c'2b2 | d4 "_dim."e4 |
"_<>"f4 !p!F2G2 |\
F4 A2G2 | (FA)F2 d2"^cres."(ef) | g3G "_dim."A3(A/G/) | "_<>"HF4 !p!yB3d |\
c2B2 c3B | F2G2 F3(G/A/) |
B2(ec) B2c2 | B2z2 !f!b3d' |\
c'2b2 c'3b | f2g2 f3(g/a/) | b2(ec) B2c2 | HB4 |]
% - - - - - - - - - - - - - - - - - - - - - - - - -
V: 3
!mf!G3D |\
D2D2 F2G2 | d2G2 z4 | F2G2 [c2C2][^c2^C2] | [d4D4] z4 |\
z4 G2G2 | D2G2 z4 | F2G2 [c2C2][^c2^C2] |
"_<>"[d4D4] !p!D4 |\
D4- D4- | D4 B2"^cres."(cd) | e4 "_dim."G2E2 | "_<>"HD4 !p!yG4 |\
(GA).B.G G4 | D2G2 D4 |
G2C2 D2D2 | G2z2 !f!G4 |\
(GA).B.G G4 | D2G2 D4 | G2C2 D2D2 | HG4 |]
% - - - - - - - - - - - - - - - - - - - - - - - - -
